X: 614
T: Dün Gece Yâr Hânesinde
C: Raci Alkır
O: Turkey
F: http://compmusic.upf.edu/node/140
N: segah-maye--turku--sofyan--dun_gece--erzurum
N: makam= segah-maye
N: form= turku
N: usul= sofyan = 4/4
M: 4/4
L: 1/16
K: C _1/4B _1/4e ^f 
Q: 1/4=102
%%MIDI tuningsystem comma53
d3/2c/dd dccB c3/2B/cd ccB2  | d3c d/e/c2B B2GB BGB2  | 
w:  ARANAĞME  |   | 
d3/2c/dd dccB c3/2B/cd ccB2  | d3c d/e/c2B B2GB BGB2  | 
w:  ARANAĞME  |   | 
d_2/4e{f}e/f/e3/4d1/4 d4 de{f}e/f/e3/4d1/4 d4  | \
w:  Am *  *  *  *  *  *  man  am *  *  *  *  *  *  man   | 
d3/2_2/4e/de dd3 d2de d/e/d/c/dz  | 
w:  dün  *  *  ge ce  yâr  hâ *  ne sin *  *  *  de   | 
d/_2/4e/d2e {f}d2d/e/d/c/ dd{e}d{e}c c/d/c2z  | \
w:  yas *  *  tı *  ğım  bir  *  *  *  taş_ *  *  *  *  i di    | 
Bcd_2/4e ^3/4fgag {a}g2gg/f/ efe{f}d  | 
w:  Dün  *  *  ge ce  yâr  *  *  *  hâ *  ne *  sin *  de   | 
d3_2/4e {f}d2dc dcdc c/d/c2z  | B{d}c2d Bcdz B{d}c2d Bcd2  | 
w:  yas tı *  ğım  bir  *  taş_ *  *  i di    |  Al *  *  tım  ça mur  *  üs *  *  tüm  yağ *  mur   | 
d2A_2/4B c2cB {B}dc2B B/A/B2A  | z2A_2/4B cc2c Bc2c {d}Bc2B  | 
w:  *  gi ne  gön lüm  *  *  hoş_ *  i di    |  A man_ a man_ *  a man_ *  *  a man_  | 
A/A3/2=e2 e2d2 d/c7/2 c2B2  | z2{c}dd d2d/c3/2 d/d3/2c3/2B/ B4  | \
w:  a man_ *  *  a man   |  *  ben  yan dım  se *  ni  bil *  *  mem    | 
d3/2c/dd dccB c3/2B/cd ccB2  | 
w:  ARANAĞME  | 
d3c d/e/c2B B2GB BGB2  | d3/2c/dd dccB c3/2B/cd ccB2  | 
w:   |  ARANAĞME  | 
d3c d/e/c2B B2GB BGB2  | d_2/4e{f}e/f/e3/4d1/4 d4 de{f}e/f/e3/4d1/4 d4  | 
w:   |  Am *  *  *  *  *  *  man  am *  *  *  *  *  *  man   | 
d3/2_2/4e/de dd3 d2de d/e/d/c/dz  | \
w:  dün  *  *  ge ce  yâr  hâ *  ne sin *  *  *  de   | 
d/_2/4e/d2e {f}d2d/e/d/c/ dd{e}d{e}c c/d/c2z  | 
w:  yas *  *  tı *  ğım  bir  *  *  *  taş_ *  *  *  *  i di    | 
Bcd_2/4e ^3/4fgag {a}g2gg/f/ efe{f}d  | \
w:  Dün  *  *  ge ce  yâr  *  *  *  hâ *  ne *  sin *  de   | 
d3_2/4e {f}d2dc dcdc c/d/c2z  | 
w:  yas tı *  ğım  bir  *  taş_ *  *  i di    | 
B{d}c2d Bcdz B{d}c2d Bcd2  | d2A_2/4B c2cB {B}dc2B B/A/B2A  | 
w:  Al *  *  tım  ça mur  *  üs *  *  tüm  yağ *  mur   |  *  gi ne  gön lüm  *  *  hoş_ *  i di    | 
z2A_2/4B cc2c Bc2c {d}Bc2B  | A/A3/2=e2 e2d2 d/c7/2 c2B2  | 
w:  A man_ a man_ *  a man_ *  *  a man_  |  a man_ *  *  a man   | 
z2{c}dd d2d/c3/2 d/d3/2c3/2B/ B4  | |


